synths/sAUD.svg

<svg width="480" height="480" viewBox="0 0 480 480" fill="none" xmlns="http://www.w3.org/2000/svg">
<mask id="mask0-288797" mask-type="alpha" maskUnits="userSpaceOnUse" x="0" y="0" width="480" height="480">
<circle cx="240" cy="240" r="240" fill="url(#paint0_linear-398094)"/>
</mask>
<g mask="url(#mask0-288797)">
<circle cx="240" cy="240" r="240" fill="#31D8A4"/>
<circle cx="240" cy="240" r="208" fill="white"/>
</g>
<circle cx="240" cy="240" r="184" fill="#0E052F"/>
<path d="M215.32 274.38H163.48L153.94 302.82H130L175.54 175.2H204.16L249.7 302.82H224.86L215.32 274.38ZM208.3 253.86L189.4 197.88L170.5 253.86H208.3Z" fill="white"/>
<path d="M297.809 302.28C291.809 301.8 286.169 300.48 280.889 298.32C275.609 296.04 271.049 293.1 267.209 289.5C263.369 285.9 260.309 281.76 258.029 277.08C255.749 272.4 254.549 267.3 254.429 261.78H276.569C276.809 267.66 278.849 272.58 282.689 276.54C286.649 280.38 291.689 282.6 297.809 283.2V247.56L289.349 246.3C279.629 244.98 271.889 241.32 266.129 235.32C260.489 229.32 257.669 221.7 257.669 212.46C257.669 207.66 258.749 203.16 260.909 198.96C263.069 194.64 266.009 190.86 269.729 187.62C273.449 184.26 277.709 181.56 282.509 179.52C287.429 177.48 292.529 176.22 297.809 175.74V159H310.949V176.1C316.349 176.82 321.329 178.26 325.889 180.42C330.449 182.46 334.409 185.1 337.769 188.34C341.129 191.58 343.769 195.3 345.689 199.5C347.729 203.7 348.869 208.2 349.109 213H326.969C326.729 208.68 325.109 204.96 322.109 201.84C319.229 198.6 315.509 196.38 310.949 195.18V228.12L317.069 229.02C321.629 229.74 325.949 231 330.029 232.8C334.109 234.6 337.649 236.94 340.649 239.82C343.769 242.7 346.169 246.18 347.849 250.26C349.649 254.22 350.549 258.72 350.549 263.76C350.549 269.16 349.529 274.08 347.489 278.52C345.569 282.84 342.809 286.68 339.209 290.04C335.729 293.28 331.529 295.98 326.609 298.14C321.809 300.18 316.589 301.5 310.949 302.1V320.64H297.809V302.28ZM310.949 283.02C316.589 282.06 320.969 280.02 324.089 276.9C327.209 273.66 328.769 269.58 328.769 264.66C328.769 260.1 327.269 256.74 324.269 254.58C321.269 252.3 317.849 250.8 314.009 250.08L310.949 249.54V283.02ZM297.809 194.64C292.769 195.36 288.449 197.22 284.849 200.22C281.369 203.1 279.629 207 279.629 211.92C279.629 216.12 280.769 219.3 283.049 221.46C285.449 223.5 288.569 224.82 292.409 225.42L297.809 226.32V194.64Z" fill="white"/>
<defs>
<linearGradient id="paint0_linear-398094" x1="240" y1="0" x2="240" y2="701.818" gradientUnits="userSpaceOnUse">
<stop stop-color="#08021E"/>
<stop offset="1" stop-color="#1F0777"/>
</linearGradient>
</defs>
</svg>

<svg width="480" height="480" viewBox="0 0 480 480" fill="none" xmlns="http://www.w3.org/2000/svg"><mask id="mask0-288797" maskUnits="userSpaceOnUse" x="0" y="0" width="480" height="480"><circle cx="240" cy="240" r="240" fill="url(#paint0_linear-398094)"/></mask><g mask="url(#mask0-288797)"><circle cx="240" cy="240" r="240" fill="#31D8A4"/><circle cx="240" cy="240" r="208" fill="#fff"/></g><circle cx="240" cy="240" r="184" fill="#0E052F"/><path d="M215.32 274.38h-51.84l-9.54 28.44H130l45.54-127.62h28.62l45.54 127.62h-24.84l-9.54-28.44zm-7.02-20.52l-18.9-55.98-18.9 55.98h37.8zm89.509 48.42c-6-.48-11.64-1.8-16.92-3.96-5.28-2.28-9.84-5.22-13.68-8.82-3.84-3.6-6.9-7.74-9.18-12.42-2.28-4.68-3.48-9.78-3.6-15.3h22.14c.24 5.88 2.28 10.8 6.12 14.76 3.96 3.84 9 6.06 15.12 6.66v-35.64l-8.46-1.26c-9.72-1.32-17.46-4.98-23.22-10.98-5.64-6-8.46-13.62-8.46-22.86 0-4.8 1.08-9.3 3.24-13.5 2.16-4.32 5.1-8.1 8.82-11.34 3.72-3.36 7.98-6.06 12.78-8.1a52.02 52.02 0 0115.3-3.78V159h13.14v17.1c5.4.72 10.38 2.16 14.94 4.32 4.56 2.04 8.52 4.68 11.88 7.92 3.36 3.24 6 6.96 7.92 11.16 2.04 4.2 3.18 8.7 3.42 13.5h-22.14c-.24-4.32-1.86-8.04-4.86-11.16-2.88-3.24-6.6-5.46-11.16-6.66v32.94l6.12.9c4.56.72 8.88 1.98 12.96 3.78 4.08 1.8 7.62 4.14 10.62 7.02 3.12 2.88 5.52 6.36 7.2 10.44 1.8 3.96 2.7 8.46 2.7 13.5 0 5.4-1.02 10.32-3.06 14.76-1.92 4.32-4.68 8.16-8.28 11.52-3.48 3.24-7.68 5.94-12.6 8.1-4.8 2.04-10.02 3.36-15.66 3.96v18.54h-13.14v-18.36zm13.14-19.26c5.64-.96 10.02-3 13.14-6.12 3.12-3.24 4.68-7.32 4.68-12.24 0-4.56-1.5-7.92-4.5-10.08-3-2.28-6.42-3.78-10.26-4.5l-3.06-.54v33.48zm-13.14-88.38c-5.04.72-9.36 2.58-12.96 5.58-3.48 2.88-5.22 6.78-5.22 11.7 0 4.2 1.14 7.38 3.42 9.54 2.4 2.04 5.52 3.36 9.36 3.96l5.4.9v-31.68z" fill="#fff"/><defs><linearGradient id="paint0_linear-398094" x1="240" y1="0" x2="240" y2="701.818" gradientUnits="userSpaceOnUse"><stop stop-color="#08021E"/><stop offset="1" stop-color="#1F0777"/></linearGradient></defs></svg>
